X:1
T:Up Movie Theme
T:Up Movie Theme
%%score 1 { 2 3 }
L:1/8
Q:1/4=175
M:3/4
K:F
V:1 treble nm="Flute" snm="Fl."
V:2 treble nm="Piano" snm="Pno."
V:3 bass nm="Piano" snm="Pno."
V:1
"^\n" z6 | z6 | z6 | z2 z f af |: e6- | e2 z f ae | d2 z d fd | c4 z d | a2 g2 z d | a2 g2{/e} f2 | %10
 d6- | d2 z f gf | e6- | e2 z e ge | c2 z c ec | B2 z B cB | z z A2 B2 | c3 d e2 | z z c2 d2 | %19
 e3 f af :| e6- | e2 z f ae | d2 z f ad' | e'4 z d' | f'2 e'2 z d' | a2 =b2!8va(! d'2!8va)! | %26
{de} f6 |{fe} d2 z f gf | e6- | e2 z e ge | c2 z c ec | Bc de ga | !trill(!Tb6- | b4 z2 | %34
 b2 a2 z g | d'2 a2 g2 | a6 | f6 | a2 g2 z f | a2 _g2 d2 | =B2!8va(! _d'=d' _e'=e'!8va)! | %41
 f_g =g_a =ab | ba _ag _gf | e_e d_d c=B | e2 g2 z d | e2 B2 =B2 | c6 | %47
!8va(! c'd' e'f'{/g'} a'f'!8va)! | e6- | e2 z f ae | d2 z d fa | c'4 z f | a2 g2 z d | %53
 a2 g2{/e} f2 | d6- | d2 z f gf | e6- | e2 z e ge | c2 z c ec | !fermata!B6 | z z [Aa]2 [Bb]2 | %61
 [cc']2 z [dd'] [ee']2 | z z [cc']2 [dd']2 | [ee']2 z f af | e6- | e6- | e6- | e2 z f af | e6- | %69
 e6- | e6- | e2 z f af |[Q:1/4=100] e6- | e2 z f af | d2 z d fd | c4 z =B | a2 g2 z d | a2 g2 f2 | %78
 d6- | d2 z f gf | e6- | e2 z e ge | c2 z c ec | B6 | z z A2 B2 | c3 d e2 | z z c2 d2 | %87
 !fermata!e6 | z z z z z z | z z z z z z |!8va(! z z4 z!8va)! | z z2 f af | e6- | e2 z f ae | %94
 d2 z d fd | c4 z d | a2 g2 z d | a2 g2 f2 | d6- | d2 z f gf | e6- | e2 z e ge | c2 z c ec | B6 | %104
 z2 A2 B2 | c3 d e2 | z2!<(! c2 d2!<)! |!<(! e3 f af!<)! |!p! c'6- | c'6- | c'6- | c'6 | %112
 !fermata![CF]6- | [CF]6 |] %114
V:2
 z6 | z6 | z6 | z6 |: z6 | z6 | z6 | z6 | z6 | z6 | z6 | z6 | z6 | z6 | z6 | z6 | z6 | z6 | z6 | %19
 z6 :| z6 | z6 | z6 | z6 | z6 | z6 | z6 | z6 | z6 | z6 | z6 | z6 | z6 | z6 | z6 | z6 | z6 | z6 | %38
 z6 | z6 | z6 | z6 | z6 | z6 | z6 | z6 | z6 | z6 | z6 | z6 | z6 | z6 | z6 | z6 | z6 | z6 | z6 | %57
 z6 | z6 | z6 | z6 | z6 | z6 | z6 | z6 | z6 | z6 | z6 | z6 | z6 | z6 | z6 | z6 | z6 | z6 | z6 | %76
 z6 | z6 | z6 | z6 | z6 | z6 | z6 | z6 | z6 | z6 | z6 | z6 |!pp! [Af]6 | [Ae]6 | [Af]6 | [Ae]6 | %92
 [Af]6 | [Ae]6 | [Af]6 | [_EAc]6 | [=B,DG]6 | [A,DG]6 | [G,=B,D]6 | [F,=B,D]6 | [ce]6 | c6 | %102
 [GBc]6 | [GB]6 |!<(! [CFA]6-!<)! | [CFA]6 | [G,CE]6- | [G,CE]6 |!p! [F,A,C]6 | [F,A,CE]6 | %110
 [F,A,C]6 | [F,A,CE]6 |!pp! !fermata![A,CF]6- | [A,CF]6 |] %114
V:3
!mf! F,2 [A,C]2 [A,C]2 | C,2 [A,C]2 [A,C]2 | D,2 [A,C]2 [A,C]2 | C,2 D,2 E,2 |: F,2 [A,C]2 [A,C]2 | %5
 C,2 [A,C]2 [A,C]2 | D,2 [A,C]2 [A,C]2 | C,2 [A,C]2 [A,C]2 | =B,,2 [D,F,G,]2 [D,F,G,]2 | %9
 =B,,2 [D,F,G,]2 [D,F,G,]2 | =B,,2 [D,F,G,]2 [D,F,G,]2 | =B,,2 [D,F,G,]2 [D,F,G,]2 | %12
 E,2 [G,C]2 [G,C]2 | D,2 [G,C]2 [G,C]2 | C,2 [E,G,]2 [E,G,]2 | B,,2 [E,G,]2 [E,G,]2 | %16
 F,2 [A,C]2 [A,C]2 | F,2 [A,C]2 [A,C]2 | C,2 [E,G,]2 [E,G,]2 | [C,E,G,]6 :| F,2 [A,C]2 [A,C]2 | %21
 C,2 [A,C]2 [A,C]2 | D,2 [A,C]2 [A,C]2 | C,2 [A,C]2 [A,C]2 | =B,,2 [D,F,G,]2 [D,F,G,]2 | %25
 =B,,2 [D,F,G,]2 [D,F,G,]2 | =B,,2 [D,F,G,]2 [D,F,G,]2 | =B,,2 [D,F,G,]2 [D,F,G,]2 | [E,G,C]6 | %29
 [D,G,C]6 | [C,E,G,]6 | [B,,E,G,]6 | C,2 [E,G,]2 [E,G,]2 | G,,2 [E,G,]2 [E,G,]2 | %34
 C,2 [E,G,]2 [E,G,]2 | G,,2 [E,G,]2 [E,G,]2 | F,,2 [E,G,]2 [E,G,]2 | C,2 [E,G,]2 [E,G,]2 | %38
 F,,2 [F,A,]2 [F,A,]2 | D,,2 [F,=B,]2 [F,B,]2 | =B,,2!mp! [F,=B,]4- |!<(! [F,B,]6!<)! | %42
!>(! D,2 [F,=B,]4-!>)! | [F,B,]6 | [E,G,C]6- | [E,G,C]6 | [_A,CE]6- |!mp! [A,CE]6 | F,2 [A,C]4 | %49
 C,2 [A,C]4 | D,2 [A,C]4 | C,2 [A,C]4 | =B,,2 [G,=B,]4 | G,,2 [G,=B,]4 | =B,,2 [G,=B,]4 | %55
 D,2 [G,=B,]4 | E,2 [G,C]4 | D,2 [G,C]4 | C,2 [E,G,]4 | !fermata!B,,6 |!mf! [F,A,C]6- | [F,A,C]6 | %62
 [C,E,G,]6- | [C,E,G,]6 |!mp!"^rit." F,2 [A,C]2 [A,C]2 | C,2 [A,C]2 [A,C]2 | %66
 D,>[A,C] [A,C]2 [A,C]2 | C,2 [A,C]4- | [A,C]4 FE- | E6 | F6- | F2 z4 |!p! [F,A,C]6 | [E,A,C]6 | %74
 [F,A,C]6 | [_E,A,C]6 | [D,G,=B,]6 | [D,G,]6 | [D,G,=B,]6 | [D,G,]6 | [E,G,C]6 | [D,G,C]6 | %82
 [C,E,G,]6 | [B,,E,G,]6 | [F,A,C]6- | [F,A,C]6 | [E,G,C]6- | !fermata![E,G,C]6 | z6 | z6 | z6 | %91
 z6 | z6 | z6 | z6 | z6 | z6 | z6 | z6 | z6 | z6 | z6 | z6 | z6 | z6 | z6 | z6 | z6 | z6 | z6 | %110
 z6 | z6 |!pp! !fermata![C,F,]6- | [C,F,]6 |] %114

